X:21160 
T:PAY THE GIRL HER FOURPENCE (reel)
B:DMI.0804
Z:Nordberg/Black
R:reel
%Q:1/4=180
M:C|
L:1/8
K:Em
fe|dBB2 dBGB|dcAc g2fe|dcBc dBGf|gefd egfe|
dBB2 dBGB|dedB dfga|bagb afdf|gefd e2:|
ef|g2bg fgaf|gefd edBd|g2bg f2af|gefd e3f|
gabg fgaf|gefd edBd|g3e fefg|afdf e2:|

%%%

